www/assets/icons/hdr_auto_select.svg

<svg xmlns="http://www.w3.org/2000/svg" width="24" height="24" viewBox="0 0 24 24" fill='currentColor'><path d="M10 16H6.5v6H10c.8 0 1.5-.7 1.5-1.5v-3c0-.8-.7-1.5-1.5-1.5m0 4.5H8v-3h2zm6.5-4.5H13v6h1.5v-2h1.1l.9 2H18l-.9-2.1c.5-.3.9-.8.9-1.4v-1c0-.8-.7-1.5-1.5-1.5m0 2.5h-2v-1h2zm-13-.5h-2v-2H0v6h1.5v-2.5h2V22H5v-6H3.5zm18.5.5v-2h-1.5v2h-2V20h2v2H22v-2h2v-1.5zM11.97 5.3l-1.02 2.89h2.1L12.03 5.3z"/><path d="M12 2C8.69 2 6 4.69 6 8s2.69 6 6 6 6-2.69 6-6-2.69-6-6-6m2.04 9-.63-1.79h-2.83L9.96 11H8.74l2.63-7h1.25l2.63 7z"/></svg>

<svg width="24" height="24" viewBox="0 0 24 24" xmlns="http://www.w3.org/2000/svg" fill='currentColor'><path d="M10 16H6.5V22H10C10.8 22 11.5 21.3 11.5 20.5V17.5C11.5 16.7 10.8 16 10 16ZM10 20.5H8V17.5H10V20.5Z"/><path d="M16.5 16H13V22H14.5V20H15.6L16.5 22H18L17.1 19.9C17.6 19.6 18 19.1 18 18.5V17.5C18 16.7 17.3 16 16.5 16ZM16.5 18.5H14.5V17.5H16.5V18.5Z"/><path d="M3.5 18H1.5V16H0V22H1.5V19.5H3.5V22H5V16H3.5V18Z"/><path d="M22 18.5V16.5H20.5V18.5H18.5V20H20.5V22H22V20H24V18.5H22Z"/><path d="M11.97 5.3L10.95 8.19H13.05L12.03 5.3H11.97Z"/><path d="M12 2C8.69 2 6 4.69 6 8C6 11.31 8.69 14 12 14C15.31 14 18 11.31 18 8C18 4.69 15.31 2 12 2ZM14.04 11L13.41 9.21H10.58L9.96 11H8.74L11.37 4H12.62L15.25 11H14.04Z"/></svg>
